X: 1
T:Humours of Glendart, The
S:Kevin Burke
M:6/8
L:1/8
K:D
BAF ADD|FEF DFA|BAF ADD|FEE EFA|!
BAF ADD|FEF DFA|dcB AFE|FDD D3:|!
def d2B|AFA AFA|def d2f|ede fdB|!
def d2B|AFA Abc|dcB AFE|FDD D3:|!
